X: 133
T:Cairin' 'O't
M:C|
L:1/8
R:Reel
K:A
E2|"A"A2 AB cBcd|e2 af ecAc|"Bm"dcde dcBA|"E"GABc B3 c|!
"D"dcde fgag|"A"ecBc AGFE|AGAB "E"ceBd|"A"c2 A2 A2:||!
af|"A"ecAc e2 af|ecAc e3 c|"Bm"dcde fgaf|"E"g2 e2 e3 c|!
"D"dcde fgaf|"A"ecBc AGFE|AGAB "E"ceBd|"A"c2 A2 A2:||
% <A name="D1X134">
